resources/web/style/img/warning.svg

<?xml version="1.0" encoding="UTF-8"?>
<svg width="49px" height="30px" viewBox="0 0 49 30" version="1.1" xmlns="http://www.w3.org/2000/svg" xmlns:xlink="http://www.w3.org/1999/xlink">
    <!-- Generator: Sketch 59 (86127) - https://sketch.com -->
    <title>warning</title>
    <desc>Created with Sketch.</desc>
    <g id="warning" stroke="none" stroke-width="1" fill="none" fill-rule="evenodd">
        <path d="M2.08096392,29.3721521 L3.57954204,29.3721521 L4.96093277,24.617185 L5.0177509,24.617185 L6.40269276,29.3721521 L7.90127087,29.3721521 L9.9822348,22.0994317 L8.3025489,22.0994317 L7.09871482,27.1633473 L7.03479443,27.1633473 L5.71022183,22.0994317 L4.27201297,22.0994317 L2.94388924,27.1526939 L2.88351998,27.1526939 L1.6796859,22.0994317 L-3.44613227e-13,22.0994317 L2.08096392,29.3721521 Z M12.0561063,29.3721521 L12.5958785,27.713773 L15.2201658,27.713773 L15.759938,29.3721521 L17.4076637,29.3721521 L14.9005639,22.0994317 L12.9190316,22.0994317 L10.4083806,29.3721521 L12.0561063,29.3721521 Z M12.9865032,26.51349 L13.8813887,23.761362 L13.9382068,23.761362 L14.8330923,26.51349 L12.9865032,26.51349 Z M18.2812496,29.3721521 L19.8188902,29.3721521 L19.8188902,26.7940295 L20.9410482,26.7940295 L22.3188878,29.3721521 L24.0163293,29.3721521 L22.4715865,26.5454502 C23.2990005,26.1903369 23.7570966,25.4694569 23.7570966,24.4751397 C23.7570966,23.0298286 22.8018419,22.0994317 21.150565,22.0994317 L18.2812496,22.0994317 L18.2812496,29.3721521 Z M19.8188902,25.5582352 L19.8188902,23.3565328 L20.855821,23.3565328 C21.7436042,23.3565328 22.1732913,23.7507086 22.1732913,24.4751397 C22.1732913,25.1960197 21.7436042,25.5582352 20.8629233,25.5582352 L19.8188902,25.5582352 Z M30.9268404,22.0994317 L29.3963021,22.0994317 L29.3963021,26.673291 L29.3323817,26.673291 L26.1931801,22.0994317 L24.8437496,22.0994317 L24.8437496,29.3721521 L26.3813902,29.3721521 L26.3813902,24.7947417 L26.4346572,24.7947417 L29.5987166,29.3721521 L30.9268404,29.3721521 L30.9268404,22.0994317 Z M33.7322424,22.0994317 L32.1946018,22.0994317 L32.1946018,29.3721521 L33.7322424,29.3721521 L33.7322424,22.0994317 Z M41.0830904,22.0994317 L39.5525521,22.0994317 L39.5525521,26.673291 L39.4886317,26.673291 L36.3494301,22.0994317 L34.9999996,22.0994317 L34.9999996,29.3721521 L36.5376402,29.3721521 L36.5376402,24.7947417 L36.5909072,24.7947417 L39.7549666,29.3721521 L41.0830904,29.3721521 L41.0830904,22.0994317 Z M47.1732904,24.4502818 C46.9779781,23.7684642 46.441757,23.3600839 45.6498544,23.3600839 C44.5383498,23.3600839 43.7819584,24.215907 43.7819584,25.7286896 C43.7819584,27.2485745 44.5099407,28.1114999 45.6640589,28.1114999 C46.6867852,28.1114999 47.3011312,27.5397674 47.322438,26.6377797 L45.7599395,26.6377797 L45.7599395,25.4801103 L48.8032605,25.4801103 L48.8032605,26.3963026 C48.8032605,28.3103633 47.4928924,29.4715838 45.6569567,29.4715838 C43.6079529,29.4715838 42.2230111,28.0440283 42.2230111,25.7428942 C42.2230111,23.3849419 43.7038335,22 45.6249965,22 C47.269171,22 48.5369255,23.0120729 48.7357889,24.4502818 L47.1732904,24.4502818 Z" id="WARNING" fill="#000000" fill-rule="nonzero"></path>
        <g id="warning-copy" transform="translate(17.000000, 0.000000)" fill="#000000" fill-rule="nonzero">
            <path d="M7.4,9 L7,4 L9,4 L8.6,9 L7.4,9 L7.4,9 Z M8,12 C7.7,12 7.5,11.9 7.3,11.7 C7.1,11.5 7,11.3 7,11 C7,10.7 7.1,10.5 7.3,10.3 C7.5,10.1 7.7,10 8,10 C8.3,10 8.5,10.1 8.7,10.3 C8.9,10.5 9,10.7 9,11 C9,11.3 8.9,11.5 8.7,11.7 C8.5,11.9 8.3,12 8,12 Z" id="Shape"></path>
            <path d="M10.9,1 L10.9,1 L15,5.1 L15,10.9 L10.9,15 L5.1,15 L1,10.9 L1,5.1 L5.1,1 L10.9,1 M10.9,0 L5.1,0 C4.8,0 4.6,0.1 4.4,0.3 L0.3,4.4 C0.1,4.6 0,4.8 0,5.1 L0,10.9 C0,11.2 0.1,11.4 0.3,11.6 L4.4,15.7 C4.6,15.9 4.8,16 5.1,16 L10.9,16 C11.2,16 11.4,15.9 11.6,15.7 L15.7,11.6 C15.9,11.4 16,11.2 16,10.9 L16,5.1 C16,4.8 15.9,4.6 15.7,4.4 L11.6,0.3 C11.4,0.1 11.2,0 10.9,0 L10.9,0 Z" id="Shape"></path>
        </g>
    </g>
</svg>

<?xml version="1.0" encoding="utf-8"?>
<!-- Generator: Adobe Illustrator 23.0.2, SVG Export Plug-In . SVG Version: 6.00 Build 0)  -->
<svg version="1.1" id="Layer_1" xmlns="http://www.w3.org/2000/svg" xmlns:xlink="http://www.w3.org/1999/xlink" x="0px" y="0px"
	 viewBox="0 0 16 16" style="enable-background:new 0 0 16 16;" xml:space="preserve">
<path id="Shape" d="M7.4,9L7,4h2L8.6,9H7.4L7.4,9z M8,12c-0.3,0-0.5-0.1-0.7-0.3C7.1,11.5,7,11.3,7,11s0.1-0.5,0.3-0.7
	C7.5,10.1,7.7,10,8,10s0.5,0.1,0.7,0.3S9,10.7,9,11s-0.1,0.5-0.3,0.7S8.3,12,8,12z"/>
<path d="M10.9,1L10.9,1L15,5.1v5.8L10.9,15H5.1L1,10.9V5.1L5.1,1H10.9 M10.9,0H5.1C4.8,0,4.6,0.1,4.4,0.3L0.3,4.4
	C0.1,4.6,0,4.8,0,5.1v5.8c0,0.3,0.1,0.5,0.3,0.7l4.1,4.1C4.6,15.9,4.8,16,5.1,16h5.8c0.3,0,0.5-0.1,0.7-0.3l4.1-4.1
	c0.2-0.2,0.3-0.4,0.3-0.7V5.1c0-0.3-0.1-0.5-0.3-0.7l-4.1-4.1C11.4,0.1,11.2,0,10.9,0L10.9,0z"/>
</svg>
